X:1
T: Bob Simms
C:Hugh Dunlop
R:Strathspey
Q:128
K:G
M:4/4
L:1/16
|:c2|BG3 G3D EG3 D4|C3B, A,3B, C3D Ec3|BG3 G3D EG3 D4|B,3C D3G A3G F2c2|
BG3 G3D EG3 D4|C3B, A,3B, C3D Ec3|BG3 G3D EG3 D4|B,3C D3c BG3 G2c2|
Bd3 d3g e3g d3g|c3e B3d A3G FD3|Bd3 d3g e3g d3g|g3d e3c BG3 G2c2|
Bd3 d3g e3g d3g|c3e B3d A3G FD3|Bd3 d3g e3g d3g|g3d e3c BG3 G2:|
